X:34
T:Will Ye Go to Flanders
R:song
Z:id:hn-song-34
M:2/4
L:1/8
Q:1/4=70
K:A
e>f e>A | (f<g) a2 | (e<c) (B>{cB})A | A4 |
a>g a>b | (g2{agf}) f>e | f<f (f{gf}e/)c/ | e3
(e/g/) | a>g ab | (g2{agf}) f>e | f>f f<c | (e<f) f
f/g/ | a>a e>e | (f<g) a2 | (e<c{dcB}) (B>{cB})A | A4 ||
W:Will ye go to Flanders, my Mally-O?
W:Will ye go to Flanders, my bonny Mally-O?
W:You'll see the plaidies furlin', you'll hear the pipies skirlin'.
W:O, will ye go to Flanders, my Mally-O?
W:
W:O, will ye go to Flanders, my Mally-O?
W:Alang wi' all the hielanders, my bonny Mally-O.
W:You'll hear the captain callin', you'll see the sergeant crawlin',
W:and the soldiers how they're fallin', my Mally-O.
W:
W:O, will ye go to Flanders, my Mally-O?
W:Will ye go to Flanders, my bonny Mally-O?
W:They're ye'll get wine and brandy, and sack and sugar candy.
W:O, will ye go to Flanders, my Mally-O?
W:
W:Will ye go to Flanders, my Mally-O?
W:To see the chief commanders, my bonny Mally-O.
W:You'll see the bullets flyin', the ladies how they're cryin',
W:And the soldiers how they're dyin', my Mally-O.

